; generated by PrusaSlicer 2.8.0+win64 on 2026-02-22 at 08:21:11 UTC


;
;
; 

; external perimeters extrusion width = 0.60mm
; perimeters extrusion width = 0.50mm
; infill extrusion width = 0.50mm
; solid infill extrusion width = 0.50mm
; top infill extrusion width = 0.45mm
; support material extrusion width = 0.38mm
; first layer extrusion width = 0.42mm

M73 P0 R32
M73 Q0 S32
M201 X1000 Y1000 Z200 E5000 ; sets maximum accelerations, mm/sec^2
M203 X200 Y200 Z12 E120 ; sets maximum feedrates, mm / sec
M204 S1250 T1250 ; sets acceleration (S) and retract acceleration (R), mm/sec^2
M205 X8.00 Y8.00 Z0.40 E4.50 ; sets the jerk limits, mm/sec
M205 S0 T0 ; sets the minimum extruding and travel feed rate, mm/sec

; printing object e80_connector_inner2.stl id:0 copy 0
; stop printing object e80_connector_inner2.stl id:0 copy 0

;TYPE:Custom
M862.3 P "MK3S" ; printer model check
M862.1 P0.4 ; nozzle diameter check
M115 U3.13.3 ; tell printer latest fw version
G90 ; use absolute coordinates
M83 ; extruder relative mode
M104 S230 ; set extruder temp
M140 S85 ; set bed temp
M190 S85 ; wait for bed temp
M109 S230 ; wait for extruder temp
G28 W ; home all without mesh bed level
G80 X193.781 Y14.135 W38.7129 H25.6341 ; mesh bed levelling

G1 Z0.2 F720
G1 Y-3 F1000 ; go outside print area
G92 E0
G1 X60 E9 F1000 ; intro line
G1 X100 E12.5 F1000 ; intro line

G92 E0
M221 S95

; Don't change E values below. Excessive value can damage the printer.

M907 E538 ; set extruder motor current
G21 ; set units to millimeters
G90 ; use absolute coordinates
M83 ; use relative distances for extrusion

M900 K0.08 ; Filament gcode LA 1.5
M900 K45 ; Filament gcode LA 1.0




M107
;LAYER_CHANGE
;Z:0.2
;HEIGHT:0.2
G1 E-1 F2100
G1 Z.4 F720
; printing object e80_connector_inner2.stl id:0 copy 0
G1 X227.051 Y16.113 F10800
G1 Z.2 F720
G1 E1 F2100
M204 S800
;TYPE:Support material
;WIDTH:0.42
G1 F1200
G1 X227.616 Y16.165 E.01779
G1 X228.711 Y16.494 E.03585
G1 X229.717 Y17.029 E.03573
G1 X230.599 Y17.751 E.03574
G1 X231.324 Y18.631 E.03575
G1 X231.862 Y19.636 E.03574
G1 X232.194 Y20.727 E.03576
G1 X232.305 Y21.862 E.03576
G1 X232.193 Y22.997 E.03576
G1 X231.861 Y24.088 E.03576
G1 X231.322 Y25.093 E.03576
G1 X230.551 Y26.029 E.03802
G1 X230.619 Y26.594 E.01784
G1 X230.492 Y27.788 E.03765
G1 X230.111 Y28.89 E.03656
G1 X229.534 Y29.864 E.0355
G1 X228.769 Y30.706 E.03567
G1 X227.794 Y31.41 E.03771
G1 X227.214 Y31.648 E.01966
G1 X227.165 Y32.154 E.01594
G1 X226.833 Y33.248 E.03585
G1 X226.294 Y34.256 E.03584
G1 X225.568 Y35.139 E.03584
G1 X224.684 Y35.863 E.03583
G1 X223.675 Y36.401 E.03585
G1 X222.581 Y36.731 E.03583
G1 X222.094 Y36.778 E.01534
G1 X221.738 Y37.156 E.01628
G1 X220.796 Y37.809 E.03594
G1 X219.753 Y38.254 E.03555
G1 X218.652 Y38.478 E.03523
G1 X217.536 Y38.479 E.03499
G1 X216.371 Y38.242 E.03728
G1 X215.755 Y37.942 E.02148
G1 X214.783 Y38.71 E.03884
G1 X213.756 Y39.224 E.03601
G1 X212.645 Y39.518 E.03603
G1 X211.498 Y39.58 E.03602
G1 X210.362 Y39.407 E.03603
G1 X209.285 Y39.006 E.03603
G1 X208.313 Y38.394 E.03601
G1 X207.486 Y37.598 E.03599
G1 X206.839 Y36.651 E.03596
G1 X206.689 Y36.291 E.01223
G1 X206.053 Y36.273 E.01995
G1 X204.942 Y36.001 E.03586
G1 X203.914 Y35.501 E.03584
G1 X203.015 Y34.794 E.03586
G1 X202.286 Y33.914 E.03583
G1 X201.962 Y33.288 E.0221
G1 X201.307 Y33.339 E.0206
G1 X200.162 Y33.191 E.0362
G1 X199.071 Y32.813 E.0362
G1 X198.079 Y32.218 E.03627
G1 X197.23 Y31.432 E.03628
G1 X196.542 Y30.463 E.03726
G1 X196.077 Y29.329 E.03843
G1 X195.864 Y28.29 E.03325
G1 X195.911 Y26.932 E.0426
G1 X195.313 Y26.371 E.02571
G1 X194.655 Y25.433 E.03593
G1 X194.201 Y24.381 E.03593
G1 X193.97 Y23.258 E.03595
G1 X193.971 Y22.113 E.0359
G1 X194.205 Y20.992 E.03591
G1 X194.662 Y19.942 E.03591
G1 X195.321 Y19.008 E.03584
G1 X196.156 Y18.228 E.03583
G1 X197.13 Y17.634 E.03577
G1 X198.204 Y17.251 E.03575
G1 X199.337 Y17.094 E.03586
G1 X200.45 Y17.166 E.03497
G1 X201.551 Y17.472 E.03583
G1 X202.552 Y17.984 E.03525
G1 X203.425 Y18.682 E.03505
G1 X204.138 Y19.533 E.03481
G1 X204.325 Y19.876 E.01225
G1 X203.47 Y19.876 E.02681
G1 X203.111 Y20.247 E.01619
G1 X203.21 Y21.729 E.04657
G1 X203.461 Y22.963 E.03948
G1 X204.023 Y24.512 E.05167
G1 X204.622 Y25.619 E.03946
G1 X205.61 Y26.938 E.05167
G1 X206.506 Y27.824 E.03951
G1 X207.496 Y28.581 E.03908
G1 X208.562 Y29.201 E.03867
G1 X209.332 Y29.547 E.02647
G1 X210.517 Y29.933 E.03908
G1 X211.741 Y30.168 E.03908
G1 X212.972 Y30.246 E.03867
G1 X214.216 Y30.168 E.03908
G1 X215.44 Y29.933 E.03908
G1 X216.247 Y29.688 E.02644
G1 X217.372 Y29.212 E.0383
G1 X218.812 Y28.335 E.05286
G1 X219.759 Y27.544 E.03869
G1 X220.337 Y26.948 E.02603
G1 X220.872 Y26.294 E.02649
G1 X221.548 Y25.263 E.03866
G1 X222.099 Y24.131 E.03947
G1 X222.499 Y22.95 E.0391
G1 X222.746 Y21.729 E.03906
G1 X222.846 Y20.247 E.04657
G1 X222.486 Y19.876 E.01621
G1 X221.022 Y19.876 E.0459
G1 X221.674 Y18.649 E.04357
G1 X222.391 Y17.769 E.03559
G1 X223.267 Y17.046 E.03561
G1 X224.267 Y16.507 E.03562
G1 X225.354 Y16.173 E.03565
G1 X226.49 Y16.058 E.0358
G1 X226.994 Y16.107 E.01588
M204 S1000
G1 X226.994 Y16.107 F10800
G1 X231.832 Y23.6
M204 S800
G1 F1200
G1 X231.832 Y20.705 E.09077
G1 X231.413 Y19.517 E.0395
G1 X231.413 Y24.205 E.14699
G1 X230.994 Y24.957 E.02699
G1 X230.994 Y18.765 E.19415
G1 X230.575 Y18.256 E.02067
G1 X230.575 Y25.466 E.22606
G1 X230.197 Y25.926 E.01867
G1 X230.278 Y26.596 E.02116
G1 X230.156 Y27.719 E.03542
G1 X230.156 Y17.827 E.31016
G1 X229.737 Y17.484 E.01698
G1 X229.737 Y28.855 E.35653
G1 X229.318 Y29.562 E.02577
G1 X229.318 Y17.202 E.38754
G1 X228.899 Y16.979 E.01488
G1 X228.899 Y30.058 E.41008
G1 X228.48 Y30.496 E.01901
G1 X228.48 Y16.779 E.43009
G1 X228.061 Y16.653 E.01372
G1 X228.061 Y30.798 E.44351
G1 X227.642 Y31.1 E.01619
M73 Q1 S32
G1 X227.642 Y16.527 E.45693
G1 X227.223 Y16.47 E.01326
M73 P1 R32
G1 X227.223 Y31.277 E.46426
G1 X226.896 Y31.412 E.01109
G1 X226.804 Y32.172 E.024
G1 X226.804 Y16.429 E.49361
G1 X226.385 Y16.409 E.01315
G1 X226.385 Y33.365 E.53164
G1 X225.966 Y34.12 E.02707
M73 P1 R31
G1 X225.967 Y16.452 E.55397
G1 X225.548 Y16.495 E.01321
G1 X225.548 Y34.63 E.56861
G1 X225.129 Y35.061 E.01885
G1 X225.129 Y16.597 E.57893
G1 X224.71 Y16.726 E.01375
G1 X224.71 Y35.404 E.58564
G1 X224.291 Y35.689 E.01589
G1 X224.291 Y16.88 E.58974
G1 X223.872 Y17.105 E.01491
G1 X223.872 Y35.912 E.58968
G1 X223.453 Y36.114 E.01458
G1 X223.453 Y17.333 E.58887
G1 X223.034 Y17.679 E.01704
G1 X223.034 Y36.24 E.58197
G1 X222.615 Y36.366 E.01372
G1 X222.615 Y23.721 E.39648
G1 X222.196 Y24.749 E.03481
G1 X222.196 Y36.427 E.36616
G1 X221.934 Y36.452 E.00825
G1 X221.777 Y36.62 E.00721
G1 X221.777 Y25.541 E.34737
G1 X221.358 Y26.199 E.02446
G1 X221.358 Y37.006 E.33885
G1 X220.939 Y37.297 E.016
G1 X220.939 Y26.759 E.33041
G1 X220.52 Y27.25 E.02024
M73 Q1 S31
G1 X220.52 Y37.558 E.3232
G1 X220.101 Y37.737 E.01429
G1 X220.101 Y27.683 E.31524
G1 X219.682 Y28.072 E.01793
G1 X219.682 Y37.915 E.30862
G1 X219.263 Y38.007 E.01345
G1 X219.263 Y28.417 E.30069
G1 X218.844 Y28.727 E.01634
G1 X218.844 Y38.093 E.29366
G1 X218.425 Y38.139 E.01322
G1 X218.425 Y29.007 E.28633
G1 X218.006 Y29.258 E.01531
G1 X218.006 Y38.139 E.27846
G1 X217.587 Y38.139 E.01314
G1 X217.587 Y29.483 E.2714
G1 X217.168 Y29.684 E.01457
G1 X217.168 Y38.058 E.26256
G1 X216.749 Y37.973 E.01341
G1 X216.749 Y29.862 E.25431
G1 X216.33 Y30.018 E.01402
G1 X216.33 Y37.845 E.24541
G1 X215.911 Y37.641 E.01461
M73 Q2 S31
G1 X215.911 Y30.154 E.23475
G1 X215.492 Y30.27 E.01363
M73 P2 R31
G1 X215.492 Y37.717 E.2335
G1 X215.073 Y38.049 E.01676
G1 X215.073 Y30.367 E.24086
G1 X214.654 Y30.446 E.01337
G1 X214.654 Y38.38 E.24876
G1 X214.235 Y38.605 E.01491
G1 X214.235 Y30.507 E.25391
G1 X213.816 Y30.55 E.01321
G1 X213.816 Y38.815 E.25914
G1 X213.397 Y38.968 E.01399
G1 X213.397 Y30.576 E.26313
G1 X212.978 Y30.585 E.01314
G1 X212.978 Y39.079 E.26632
G1 X212.559 Y39.183 E.01354
G1 X212.559 Y30.576 E.26987
G1 X212.14 Y30.55 E.01316
G1 X212.14 Y39.206 E.2714
G1 X211.721 Y39.228 E.01316
G1 X211.721 Y30.507 E.27344
G1 X211.302 Y30.446 E.01328
G1 X211.302 Y39.207 E.2747
G1 X210.883 Y39.143 E.01329
G1 X210.883 Y30.367 E.27517
G1 X210.464 Y30.27 E.01348
G1 X210.464 Y39.079 E.2762
G1 X210.045 Y38.927 E.01398
G1 X210.045 Y30.154 E.27507
G1 X209.626 Y30.018 E.01381
G1 X209.626 Y38.771 E.27444
G1 X209.207 Y38.556 E.01477
G1 X209.207 Y29.862 E.27259
G1 X208.788 Y29.684 E.01427
G1 X208.788 Y38.293 E.26993
G1 X208.369 Y37.978 E.01644
G1 X208.369 Y29.483 E.26635
G1 X207.95 Y29.258 E.01491
G1 X207.95 Y37.574 E.26074
G1 X207.532 Y37.063 E.0207
G1 X207.532 Y29.007 E.25259
G1 X207.113 Y28.727 E.0158
G1 X207.113 Y36.425 E.24137
G1 X206.918 Y35.957 E.0159
G1 X206.694 Y35.951 E.00703
G1 X206.694 Y28.417 E.23622
G1 X206.275 Y28.072 E.01702
G1 X206.275 Y35.94 E.2467
G1 X205.856 Y35.876 E.01329
G1 X205.856 Y27.683 E.25689
G1 X205.437 Y27.25 E.01889
G1 X205.437 Y35.773 E.26723
G1 X205.018 Y35.661 E.0136
G1 X205.018 Y26.759 E.27912
G1 X204.599 Y26.199 E.02193
G1 X204.599 Y35.457 E.29028
G1 X204.18 Y35.253 E.01461
G1 X204.18 Y25.541 E.30451
G1 X203.761 Y24.749 E.02809
G1 X203.761 Y34.948 E.31978
G1 X203.342 Y34.619 E.0167
G1 X203.342 Y23.159 E.35932
M204 S1000
;WIPE_START
G1 F8640
G1 X203.342 Y27.49 E-1
;WIPE_END
G1 Z.4 F720
G1 X222.615 Y19.764 F10800
G1 Z.2 F720
G1 E1 F2100
M204 S800
G1 F1200
G1 X222.615 Y18.032 E.05431
G1 X222.196 Y18.546 E.02079
G1 X222.196 Y19.536 E.03104
G1 X221.777 Y19.536 E.01314
G1 X221.777 Y18.817 E.02254
M204 S1000
;WIPE_START
G1 F8640
G1 X221.777 Y19.536 E-.16602
G1 X222.196 Y19.536 E-.09675
G1 X222.196 Y18.546 E-.22859
G1 X222.615 Y18.032 E-.15312
G1 X222.615 Y19.572 E-.35552
;WIPE_END
G1 Z.4 F720
G1 X203.342 Y19.764 F10800
G1 Z.2 F720
G1 E1 F2100
M204 S800
G1 F1200
G1 X203.342 Y19.111 E.02047
G1 X202.923 Y18.715 E.01808
G1 X202.923 Y34.15 E.48395
G1 X202.504 Y33.596 E.02178
G1 X202.504 Y18.38 E.47709
G1 X202.085 Y18.126 E.01536
G1 X202.085 Y32.938 E.46442
G1 X201.666 Y32.971 E.01318
G1 X201.666 Y17.912 E.47216
G1 X201.427 Y17.79 E.00841
G1 X201.247 Y17.74 E.00586
G1 X201.247 Y32.989 E.47812
G1 X200.828 Y32.935 E.01325
M73 P3 R31
M73 Q3 S31
G1 X200.828 Y17.623 E.4801
G1 X200.409 Y17.507 E.01363
G1 X200.409 Y32.881 E.48204
G1 X199.99 Y32.772 E.01357
G1 X199.99 Y17.48 E.47947
G1 X199.571 Y17.451 E.01317
G1 X199.571 Y32.627 E.47583
G1 X199.152 Y32.465 E.01409
G1 X199.152 Y17.462 E.47041
G1 X198.733 Y17.52 E.01326
G1 X198.733 Y32.214 E.46072
G1 X198.314 Y31.963 E.01531
G1 X198.314 Y17.578 E.45103
G1 X197.895 Y17.722 E.01389
G1 X197.895 Y31.585 E.43466
G1 X197.476 Y31.192 E.01801
G1 X197.476 Y17.871 E.41767
G1 X197.057 Y18.076 E.01463
G1 X197.057 Y30.602 E.39274
G1 X196.841 Y30.298 E.01169
G1 X196.638 Y29.803 E.01677
G1 X196.638 Y18.331 E.3597
G1 X196.219 Y18.633 E.01619
G1 X196.219 Y29.177 E.3306
M204 S1000
G1 X196.219 Y29.177 F10800
G1 X195.8 Y26.595
M204 S800
G1 F1200
G1 X195.8 Y19.025 E.23735
G1 X195.381 Y19.512 E.02014
G1 X195.381 Y25.877 E.19957
G1 X194.962 Y25.28 E.02287
G1 X194.962 Y20.105 E.16226
G1 X194.543 Y21.066 E.03287
G1 X194.543 Y24.746 E.11538
M204 S1000
;WIPE_START
G1 F8640
G1 X194.543 Y21.066 E-.84972
G1 X194.803 Y20.47 E-.15028
;WIPE_END
G1 Z.4 F720
G1 X213.42 Y14.346 F10800
G1 Z.2 F720
G1 E1 F2100
M204 S800
G1 F1200
G1 X214.55 Y14.577 E.03616
G1 X215.619 Y15.01 E.03616
G1 X216.592 Y15.629 E.03616
G1 X217.437 Y16.415 E.03618
G1 X218.125 Y17.341 E.03617
G1 X218.633 Y18.376 E.03615
G1 X218.945 Y19.487 E.03618
G1 X218.98 Y19.876 E.01225
G1 X218.826 Y19.876 E.00483
G1 X218.468 Y20.233 E.01585
G1 X218.468 Y23.23 E.09397
G1 X218.125 Y23.93 E.02444
G1 X217.794 Y24.376 E.01741
G1 X207.644 Y24.376 E.31825
G1 X207.488 Y24.182 E.00781
G1 X207.488 Y20.233 E.12382
G1 X207.131 Y19.876 E.01583
G1 X206.456 Y19.876 E.02116
G1 X206.731 Y18.635 E.03985
G1 X206.935 Y18.091 E.01822
G1 X207.451 Y17.134 E.03409
G1 X208.149 Y16.267 E.0349
G1 X208.647 Y15.813 E.02113
G1 X209.094 Y15.457 E.01792
G1 X210.044 Y14.902 E.0345
G1 X211.129 Y14.511 E.03616
G1 X212.267 Y14.324 E.03616
G1 X213.364 Y14.345 E.0344
M204 S1000
G1 X213.364 Y14.345 F10800
G1 X218.425 Y20.036
M204 S800
G1 F1200
G1 X218.425 Y18.891 E.0359
G1 X218.006 Y17.869 E.03463
G1 X218.006 Y23.402 E.17348
G1 X217.587 Y24.036 E.02383
G1 X217.587 Y17.186 E.21478
G1 X217.168 Y16.628 E.02188
G1 X217.168 Y24.036 E.23227
G1 X216.749 Y24.036 E.01314
G1 X216.749 Y16.238 E.2445
G1 X216.33 Y15.864 E.01761
G1 X216.33 Y24.036 E.25623
G1 X215.911 Y24.036 E.01314
G1 X215.911 Y15.598 E.26457
G1 X215.492 Y15.331 E.01558
G1 X215.492 Y24.036 E.27294
G1 X215.073 Y24.036 E.01314
G1 X215.073 Y15.155 E.27846
G1 X214.654 Y14.985 E.01418
G1 X214.654 Y24.036 E.28379
G1 X214.235 Y24.036 E.01314
G1 X214.235 Y14.859 E.28774
G1 X213.816 Y14.773 E.01341
G1 X213.816 Y24.036 E.29043
G1 X213.397 Y24.036 E.01314
G1 X213.383 Y14.685 E.29319
G1 X212.978 Y14.677 E.0127
G1 X212.978 Y24.036 E.29344
G1 X212.559 Y24.036 E.01314
M73 Q4 S31
G1 X212.559 Y14.669 E.2937
G1 X212.14 Y14.689 E.01315
M73 P4 R31
G1 X212.14 Y24.036 E.29307
G1 X211.721 Y24.036 E.01314
G1 X211.721 Y14.758 E.29091
G1 X211.302 Y14.827 E.01331
G1 X211.302 Y24.036 E.28874
G1 X210.883 Y24.036 E.01314
G1 X210.883 Y14.96 E.28457
G1 X210.464 Y15.111 E.01396
G1 X210.464 Y24.036 E.27984
G1 X210.045 Y24.036 E.01314
G1 X210.045 Y15.294 E.2741
G1 X209.626 Y15.539 E.01522
G1 X209.626 Y24.036 E.26642
G1 X209.207 Y24.036 E.01314
G1 X209.207 Y15.8 E.25823
G1 X208.788 Y16.143 E.01698
M73 P4 R30
G1 X208.788 Y24.036 E.24748
G1 X208.369 Y24.036 E.01314
G1 X208.369 Y16.535 E.23519
G1 X207.95 Y17.055 E.02094
G1 X207.95 Y24.036 E.21888
G1 X207.828 Y24.036 E.00383
G1 X207.828 Y20.092 E.12366
G1 X207.532 Y19.796 E.01313
G1 X207.532 Y17.701 E.06569
G1 X207.113 Y18.584 E.03064
G1 X207.113 Y19.706 E.03518
M204 S1000
;WIPE_START
G1 F8640
G1 X207.113 Y18.584 E-.25907
G1 X207.532 Y17.701 E-.22568
G1 X207.532 Y19.796 E-.48374
G1 X207.628 Y19.893 E-.03151
;WIPE_END
G1 Z.4 F720
G1 X205.645 Y23.598 F10800
G1 Z.2 F720
G1 E1 F2100
M204 S800
;TYPE:Perimeter
;WIDTH:0.5573
G1 F1200
G1 X205.56 Y23.423 E.00832
G1 X205.332 Y22.793 E.02866
G1 X205.08 Y21.718 E.04723
G1 X205.645 Y21.718 E.02417
G1 X205.645 Y23.538 E.07784
M204 S1000
;WIPE_START
G1 F8640
G1 X205.645 Y23.598 E-.01385
G1 X205.56 Y23.423 E-.04492
G1 X205.332 Y22.793 E-.1547
G1 X205.08 Y21.718 E-.25495
G1 X205.645 Y21.718 E-.13046
G1 X205.645 Y23.455 E-.40112
;WIPE_END
G1 Z.4 F720
G1 X206.239 Y25.534 F10800
G1 Z.2 F720
G1 E1 F2100
M204 S800
;WIDTH:0.38477
G1 F1200
G1 X206.118 Y25.35 E.00626
;WIDTH:0.419999
G1 X205.624 Y24.571 E.02892
G1 X205.141 Y23.575 E.03471
G1 X204.902 Y22.909 E.02219
G1 X204.697 Y22.101 E.02614
G1 X204.573 Y21.273 E.02625
G1 X206.091 Y21.273 E.0476
G1 X206.091 Y25.136 E.12112
G1 X206.165 Y25.335 E.00666
;WIDTH:0.38477
G1 X206.218 Y25.478 E.00433
M204 S1000
G1 X206.218 Y25.478 F10800
G1 X206.239 Y25.534
M204 S800
;WIDTH:0.35758
G1 F1200
G1 X206.299 Y25.604 E.00241
M204 S1000
;WIPE_START
G1 F8640
G1 X206.239 Y25.534 E-.02129
;WIPE_END
G1 E-.97871 F2100
G1 Z.4 F720
G1 X220.311 Y23.584 F10800
G1 Z.2 F720
G1 E1 F2100
M204 S800
;WIDTH:0.556412
G1 F1200
G1 X220.311 Y21.718 E.07967
G1 X220.88 Y21.718 E.02429
G1 X220.718 Y22.476 E.0331
G1 X220.517 Y23.11 E.0284
G1 X220.335 Y23.529 E.0195
M204 S1000
;WIPE_START
G1 F8640
G1 X220.311 Y23.584 E-.01386
G1 X220.311 Y21.718 E-.43086
G1 X220.88 Y21.718 E-.13138
G1 X220.718 Y22.476 E-.17898
G1 X220.517 Y23.11 E-.15357
G1 X220.359 Y23.473 E-.09135
;WIPE_END
G1 Z.4 F720
G1 X219.772 Y25.471 F10800
G1 Z.2 F720
G1 E1 F2100
M204 S800
;WIDTH:0.406614
G1 F1200
G1 X219.859 Y25.207 E.00841
;WIDTH:0.419999
G1 X219.865 Y21.273 E.12335
G1 X221.391 Y21.273 E.04785
G1 X221.305 Y21.896 E.01972
G1 X221.148 Y22.592 E.02237
G1 X220.935 Y23.267 E.02219
G1 X220.494 Y24.273 E.03444
G1 X220.149 Y24.878 E.02184
G1 X219.804 Y25.421 E.02017
M204 S1000
;WIPE_START
G1 F8640
G1 X219.772 Y25.471 E-.01371
G1 X219.859 Y25.207 E-.06418
G1 X219.865 Y21.273 E-.90837
G1 X219.924 Y21.273 E-.01374
;WIPE_END
G1 Z.4 F720
G1 X211.808 Y27.26 F10800
G1 Z.2 F720
G1 E1 F2100
M204 S800
;WIDTH:0.415526
G1 F1200
G1 X212.101 Y27.279 E.0091
;WIDTH:0.45267
G1 X212.394 Y27.297 E.01
