; generated by PrusaSlicer 2.8.0+win64 on 2026-02-22 at 09:18:02 UTC


;
;
; 

; external perimeters extrusion width = 0.60mm
; perimeters extrusion width = 0.50mm
; infill extrusion width = 0.50mm
; solid infill extrusion width = 0.50mm
; top infill extrusion width = 0.45mm
; support material extrusion width = 0.38mm
; first layer extrusion width = 0.42mm

M73 P0 R29
M73 Q0 S29
M201 X1000 Y1000 Z200 E5000 ; sets maximum accelerations, mm/sec^2
M203 X200 Y200 Z12 E120 ; sets maximum feedrates, mm / sec
M204 S1250 T1250 ; sets acceleration (S) and retract acceleration (R), mm/sec^2
M205 X8.00 Y8.00 Z0.40 E4.50 ; sets the jerk limits, mm/sec
M205 S0 T0 ; sets the minimum extruding and travel feed rate, mm/sec

; printing object e80_connector_outer.stl id:0 copy 0
; stop printing object e80_connector_outer.stl id:0 copy 0

;TYPE:Custom
M862.3 P "MK3S" ; printer model check
M862.1 P0.4 ; nozzle diameter check
M115 U3.13.3 ; tell printer latest fw version
G90 ; use absolute coordinates
M83 ; extruder relative mode
M104 S230 ; set extruder temp
M140 S85 ; set bed temp
M190 S85 ; wait for bed temp
M109 S230 ; wait for extruder temp
G28 W ; home all without mesh bed level
G80 X179.922 Y22.6079 W35 H35 ; mesh bed levelling

G1 Z0.2 F720
G1 Y-3 F1000 ; go outside print area
G92 E0
G1 X60 E9 F1000 ; intro line
G1 X100 E12.5 F1000 ; intro line

G92 E0
M221 S95

; Don't change E values below. Excessive value can damage the printer.

M907 E538 ; set extruder motor current
G21 ; set units to millimeters
G90 ; use absolute coordinates
M83 ; use relative distances for extrusion

M900 K0.08 ; Filament gcode LA 1.5
M900 K45 ; Filament gcode LA 1.0




M107
;LAYER_CHANGE
;Z:0.2
;HEIGHT:0.2
G1 E-1 F2100
G1 Z.4 F720
; printing object e80_connector_outer.stl id:0 copy 0
G1 X197.748 Y30.624 F10800
G1 Z.2 F720
G1 E1 F2100
M204 S800
;TYPE:Support material
;WIDTH:0.42
G1 F1200
G1 X199.046 Y30.758 E.04091
G1 X200.725 Y31.211 E.05453
G1 X202.292 Y31.963 E.0545
G1 X203.414 Y32.75 E.04297
G1 X203.573 Y33.316 E.01843
G1 X203.677 Y34.462 E.03608
G1 X203.572 Y35.615 E.0363
G1 X203.26 Y36.723 E.03609
G1 X202.751 Y37.759 E.03619
G1 X202.063 Y38.685 E.03617
G1 X201.219 Y39.47 E.03614
G1 X200.211 Y40.112 E.03747
G1 X201.198 Y40.74 E.03668
G1 X202.042 Y41.526 E.03616
G1 X202.73 Y42.452 E.03617
G1 X203.238 Y43.487 E.03615
G1 X203.55 Y44.598 E.03618
G1 X203.655 Y45.745 E.03611
G1 X203.55 Y46.897 E.03627
G1 X203.383 Y47.491 E.01935
G1 X202.292 Y48.253 E.04173
G1 X201.129 Y48.844 E.0409
G1 X199.896 Y49.27 E.0409
G1 X198.616 Y49.522 E.0409
G1 X197.313 Y49.597 E.04092
G1 X195.584 Y49.418 E.0545
G1 X193.917 Y48.927 E.05449
G1 X192.367 Y48.139 E.05452
G1 X191.201 Y47.271 E.04558
G1 X191.072 Y46.628 E.02056
G1 X191.015 Y45.48 E.03604
G1 X191.168 Y44.339 E.0361
G1 X191.54 Y43.202 E.03751
G1 X192.057 Y42.245 E.0341
G1 X192.755 Y41.378 E.0349
G1 X193.699 Y40.568 E.039
G1 X194.503 Y40.099 E.02918
G1 X193.675 Y39.615 E.03007
G1 X192.801 Y38.862 E.03617
G1 X192.079 Y37.964 E.03613
M73 P0 R28
G1 X191.562 Y37.008 E.03408
G1 X191.19 Y35.871 E.03751
G1 X191.037 Y34.197 E.05271
G1 X191.228 Y32.921 E.04045
G1 X192.004 Y32.317 E.03083
G1 X193.124 Y31.647 E.04092
G1 X194.324 Y31.138 E.04087
G1 X195.159 Y30.892 E.02729
G1 X196.445 Y30.669 E.04092
G1 X197.692 Y30.623 E.03913
M204 S1000
;WIPE_START
G1 F8640
G1 X196.445 Y30.669 E-.28813
G1 X195.159 Y30.892 E-.30137
G1 X194.324 Y31.138 E-.201
G1 X193.488 Y31.493 E-.2095
;WIPE_END
G1 Z.4 F720
G1 X203.288 Y47.202 F10800
G1 Z.2 F720
G1 E1 F2100
M204 S800
G1 F1200
G1 X203.215 Y44.66 E.07974
G1 X202.869 Y43.505 E.0378
G1 X202.869 Y47.459 E.12397
G1 X202.45 Y47.753 E.01605
G1 X202.45 Y42.651 E.15997
G1 X202.031 Y42.08 E.02221
G1 X202.031 Y48.011 E.18596
G1 X201.612 Y48.24 E.01497
G1 X201.612 Y41.589 E.20854
G1 X201.193 Y41.199 E.01795
G1 X201.193 Y48.443 E.22713
G1 X200.774 Y48.62 E.01426
G1 X200.774 Y40.873 E.2429
G1 X200.355 Y40.606 E.01558
G1 X200.355 Y48.773 E.25607
G1 X199.936 Y48.904 E.01376
G1 X199.936 Y40.339 E.26855
G1 X199.579 Y40.112 E.01326
G1 X199.936 Y39.884 E.01328
G1 X199.936 Y31.312 E.26877
G1 X199.517 Y31.203 E.01357
G1 X199.517 Y49.013 E.55842
G1 X199.098 Y49.102 E.01343
G1 X199.098 Y31.114 E.564
G1 X198.679 Y31.046 E.01331
G1 X198.679 Y49.17 E.56827
G1 X198.26 Y49.218 E.01322
M73 Q1 S29
G1 X198.26 Y30.998 E.57128
G1 X197.841 Y30.969 E.01317
M73 P1 R28
M73 Q1 S28
G1 X197.841 Y49.247 E.57309
G1 X197.422 Y49.256 E.01314
G1 X197.422 Y30.959 E.57369
G1 X197.003 Y30.969 E.01314
G1 X197.003 Y49.247 E.57309
G1 X196.584 Y49.218 E.01317
G1 X196.584 Y30.998 E.57128
G1 X196.165 Y31.046 E.01322
G1 X196.165 Y49.17 E.56827
G1 X195.746 Y49.102 E.01331
G1 X195.746 Y31.114 E.564
G1 X195.65 Y31.131 E.00306
G1 X195.327 Y31.202 E.01037
G1 X195.327 Y49.014 E.55848
G1 X194.908 Y48.905 E.01357
G1 X194.908 Y31.311 E.55165
G1 X194.489 Y31.441 E.01376
G1 X194.489 Y39.697 E.25886
G1 X194.07 Y39.453 E.0152
G1 X194.07 Y31.594 E.24641
G1 X193.651 Y31.771 E.01426
G1 X193.651 Y39.147 E.23127
G1 X193.232 Y38.786 E.01734
G1 X193.232 Y31.974 E.21359
G1 X192.813 Y32.205 E.015
G1 X192.813 Y38.336 E.19223
G1 X192.394 Y37.815 E.02096
G1 X192.394 Y32.465 E.16775
G1 X191.975 Y32.758 E.01603
G1 X191.975 Y37.058 E.13482
G1 X191.556 Y35.92 E.03802
G1 X191.556 Y32.868 E.09569
M204 S1000
G1 X191.556 Y32.868 F10800
G1 X203.288 Y35.997
M204 S800
G1 F1200
G1 X203.237 Y33.377 E.08216
G1 X203.116 Y32.946 E.01404
G1 X202.869 Y32.757 E.00975
G1 X202.869 Y36.75 E.1252
G1 X202.45 Y37.596 E.0296
G1 X202.45 Y32.463 E.16094
G1 X202.031 Y32.205 E.01543
G1 X202.031 Y38.16 E.18671
G1 X201.612 Y38.641 E.02
G1 X201.612 Y31.976 E.20898
G1 X201.193 Y31.773 E.0146
G1 X201.193 Y39.031 E.22757
G1 X200.774 Y39.351 E.01653
G1 X200.774 Y31.596 E.24315
G1 X200.355 Y31.443 E.01399
G1 X200.355 Y39.819 E.26262
M204 S1000
G1 X194.489 Y48.953 F10800
M204 S800
G1 F1200
G1 X194.489 Y40.5 E.26504
G1 X194.07 Y40.744 E.0152
G1 X194.07 Y48.622 E.24701
G1 X193.651 Y48.445 E.01426
G1 X193.651 Y41.04 E.23218
G1 X193.232 Y41.402 E.01736
G1 X193.232 Y48.242 E.21446
G1 X192.813 Y48.011 E.015
G1 X192.813 Y41.846 E.1933
G1 X192.394 Y42.367 E.02096
G1 X192.394 Y47.75 E.16878
G1 X191.975 Y47.458 E.01601
G1 X191.975 Y43.111 E.1363
G1 X191.556 Y44.213 E.03697
G1 X191.556 Y47.348 E.0983
M204 S1000
;WIPE_START
G1 F8640
G1 X191.556 Y44.213 E-.72388
G1 X191.975 Y43.111 E-.27223
G1 X191.975 Y43.128 E-.00389
;WIPE_END
G1 Z.4 F720
G1 X204.385 Y50.743 F10800
G1 Z.2 F720
M73 Q2 S28
G1 E1 F2100
M204 S800
;TYPE:Perimeter
;WIDTH:0.518675
G1 F1200
G1 X204.203 Y50.834 E.00805
;WIDTH:0.469337
G1 X204.021 Y50.925 E.00721
M73 P2 R28
;WIDTH:0.468805
G1 X203.693 Y51.132 E.01373
;WIDTH:0.51761
G1 X203.365 Y51.34 E.01533
;WIDTH:0.566415
G1 X203.037 Y51.548 E.01691
G1 X201.964 Y52.011 E.05087
;WIDTH:0.55858
G1 X200.854 Y52.376 E.0501
;WIDTH:0.566637
G1 X200.333 Y52.5 E.02332
G1 X199.457 Y52.673 E.03888
;WIDTH:0.566503
G1 X198.91 Y52.759 E.02411
;WIDTH:0.568141
G1 X198.333 Y52.812 E.0253
G1 X198.137 Y52.799 E.00858
;WIDTH:0.518761
G1 X197.941 Y52.787 E.00777
;WIDTH:0.46938
G1 X197.746 Y52.774 E.00693
;WIDTH:0.419999
G1 X196.808 Y52.763 E.02941
G1 X195.652 Y52.654 E.03641
G1 X194.522 Y52.442 E.03605
G1 X193.756 Y52.228 E.02494
G1 X193.128 Y52.026 E.02068
G1 X191.834 Y51.477 E.04407
G1 X191.088 Y51.072 E.02661
;WIDTH:0.453516
G1 X190.591 Y50.8 E.01934
;WIDTH:0.491634
G1 X190.488 Y50.752 E.00424
;WIDTH:0.529752
G1 X190.385 Y50.703 E.00462
;WIDTH:0.56787
G1 X190.282 Y50.655 E.00496
G1 X189.769 Y50.291 E.02746
;WIDTH:0.56337
G1 X188.868 Y49.548 E.05054
;WIDTH:0.563874
G1 X188.039 Y48.725 E.0506
;WIDTH:0.568898
G1 X187.569 Y48.162 E.03208
G1 X186.98 Y47.403 E.04202
;WIDTH:0.568752
G1 X186.812 Y47.168 E.01263
G1 X186.69 Y46.922 E.01201
;WIDTH:0.519168
G1 X186.568 Y46.676 E.01087
;WIDTH:0.469584
G1 X186.446 Y46.431 E.00971
;WIDTH:0.419999
G1 X185.861 Y45.293 E.04012
G1 X185.378 Y44.047 E.0419
G1 X185.183 Y43.358 E.02245
G1 X184.92 Y42.134 E.03925
G1 X184.79 Y41.009 E.03551
G1 X184.76 Y40.108 E.02827
G1 X184.765 Y39.496 E.01919
G1 X184.937 Y37.963 E.04837
G1 X185.229 Y36.656 E.04199
G1 X185.555 Y35.668 E.03262
G1 X186.012 Y34.599 E.03645
G1 X186.459 Y33.768 E.02959
G1 X186.715 Y33.337 E.01572
;WIDTH:0.469459
G1 X186.769 Y33.213 E.0048
;WIDTH:0.518919
G1 X186.823 Y33.09 E.00532
;WIDTH:0.568378
G1 X186.877 Y32.966 E.00591
G1 X187.229 Y32.466 E.02672
;WIDTH:0.563892
G1 X187.991 Y31.542 E.05188
;WIDTH:0.563738
G1 X188.832 Y30.699 E.05157
;WIDTH:0.56995
G1 X190.008 Y29.751 E.0662
;WIDTH:0.564695
G1 X190.269 Y29.564 E.01393
G1 X190.537 Y29.423 E.01314
;WIDTH:0.516463
G1 X190.805 Y29.283 E.01191
;WIDTH:0.468231
G1 X191.073 Y29.143 E.01069
;WIDTH:0.419999
G1 X191.533 Y28.898 E.01634
;WIDTH:0.469099
G1 X191.644 Y28.814 E.00493
;WIDTH:0.518199
G1 X191.754 Y28.73 E.00547
;WIDTH:0.567299
G1 X191.865 Y28.647 E.00604
G1 X192.934 Y28.19 E.05069
;WIDTH:0.562865
G1 X194.154 Y27.797 E.05541
;WIDTH:0.569806
G1 X195.382 Y27.549 E.05489
G1 X195.938 Y27.459 E.02468
;WIDTH:0.567647
G1 X196.506 Y27.404 E.0249
G1 X196.72 Y27.416 E.00935
;WIDTH:0.518431
G1 X196.933 Y27.428 E.00844
;WIDTH:0.469215
G1 X197.147 Y27.441 E.0076
;WIDTH:0.468263
G1 X197.54 Y27.426 E.01391
;WIDTH:0.516527
G1 X197.933 Y27.412 E.01549
;WIDTH:0.564791
G1 X198.325 Y27.397 E.01702
G1 X199.477 Y27.535 E.05035
;WIDTH:0.56344
G1 X200.328 Y27.709 E.03759
G1 X200.854 Y27.839 E.02345
;WIDTH:0.559051
G1 X201.747 Y28.126 E.04026
;WIDTH:0.55982
G1 X202.827 Y28.571 E.0502
G1 X203.162 Y28.761 E.01655
;WIDTH:0.520191
G1 X203.364 Y28.889 E.00949
;WIDTH:0.486794
G1 X203.566 Y29.016 E.00881
;WIDTH:0.453397
G1 X203.768 Y29.144 E.00816
;WIDTH:0.419999
G1 X205.221 Y30.125 E.05497
G1 X206.145 Y30.918 E.03818
G1 X207.014 Y31.826 E.03941
G1 X207.973 Y33.096 E.0499
G1 X208.388 Y33.778 E.02503
G1 X208.703 Y34.339 E.02017
G1 X209.099 Y35.189 E.0294
G1 X209.566 Y36.494 E.04346
G1 X209.8 Y37.402 E.0294
G1 X209.92 Y38.075 E.02143
G1 X210.008 Y38.633 E.01771
G1 X210.086 Y39.705 E.0337
;WIDTH:0.457899
G1 X210.101 Y39.996 E.01005
;WIDTH:0.495799
G1 X210.116 Y40.287 E.01097
;WIDTH:0.533699
G1 X210.131 Y40.578 E.01189
;WIDTH:0.571598
G1 X210.146 Y40.868 E.01277
G1 X210.015 Y42.03 E.0514
;WIDTH:0.562108
G1 X209.822 Y43.018 E.04346
;WIDTH:0.570333
G1 X209.455 Y44.243 E.05608
G1 X209.268 Y44.788 E.02527
;WIDTH:0.567528
G1 X208.879 Y45.673 E.04217
G1 X208.716 Y45.928 E.0132
;WIDTH:0.518352
G1 X208.552 Y46.183 E.01199
;WIDTH:0.469176
G1 X208.388 Y46.438 E.01075
;WIDTH:0.446834
G1 X208.27 Y46.668 E.00868
;WIDTH:0.473669
G1 X208.151 Y46.899 E.00931
;WIDTH:0.522416
G1 X208.109 Y47.009 E.00469
;WIDTH:0.571163
G1 X208.067 Y47.118 E.00513
G1 X207.517 Y47.877 E.04117
;WIDTH:0.558306
G1 X206.764 Y48.77 E.05006
;WIDTH:0.563231
G1 X206.134 Y49.397 E.03845
G1 X205.757 Y49.741 E.02208
;WIDTH:0.555725
G1 X205.026 Y50.327 E.03995
;WIDTH:0.568013
G1 X204.567 Y50.652 E.02456
G1 X204.438 Y50.716 E.00629
M204 S1000
G1 X204.438 Y50.716 F10800
G1 X204.158 Y50.378
M204 S800
;WIDTH:0.419999
G1 F1200
G1 X203.812 Y50.61 E.01306
G1 X202.824 Y51.151 E.03532
G1 X201.789 Y51.6 E.03537
G1 X200.718 Y51.951 E.03534
G1 X199.37 Y52.231 E.04317
G1 X198.874 Y52.316 E.01578
G1 X197.938 Y52.391 E.02944
G1 X196.813 Y52.386 E.03527
G1 X195.691 Y52.279 E.03534
G1 X194.595 Y52.072 E.03497
G1 X193.276 Y51.679 E.04315
G1 X191.982 Y51.13 E.04407
G1 X190.812 Y50.474 E.04206
G1 X190.023 Y49.926 E.03012
G1 X189.345 Y49.366 E.02757
G1 X188.722 Y48.781 E.0268
G1 X188.356 Y48.411 E.01632
G1 X187.332 Y47.127 E.05149
G1 X186.768 Y46.233 E.03314
G1 X186.199 Y45.126 E.03903
G1 X185.739 Y43.937 E.03997
G1 X185.546 Y43.256 E.02219
G1 X185.291 Y42.065 E.03819
G1 X185.165 Y40.974 E.03443
G1 X185.137 Y40.108 E.02717
G1 X185.141 Y39.518 E.0185
G1 X185.312 Y38.006 E.04771
G1 X185.591 Y36.76 E.04003
G1 X185.913 Y35.787 E.03213
G1 X186.357 Y34.751 E.03534
G1 X187.027 Y33.549 E.04315
G1 X187.52 Y32.822 E.02754
G1 X188.316 Y31.846 E.03949
G1 X189.125 Y31.034 E.03594
G1 X190.288 Y30.099 E.04679
G1 X191.274 Y29.462 E.03681
G1 X192.275 Y28.943 E.03535
G1 X193.099 Y28.606 E.02791
G1 X194.281 Y28.226 E.03893
G1 X196.015 Y27.897 E.05534
G1 X197.169 Y27.817 E.03627
G1 X198.311 Y27.846 E.03582
G1 X199.42 Y27.978 E.03502
G1 X200.718 Y28.264 E.04167
G1 X201.611 Y28.55 E.0294
G1 X202.652 Y28.982 E.03534
G1 X203.188 Y29.243 E.01869
G1 X203.649 Y29.508 E.01667
G1 X205.006 Y30.435 E.05153
G1 X205.896 Y31.201 E.03682
G1 X206.73 Y32.074 E.03786
G1 X207.671 Y33.322 E.04901
G1 X208.361 Y34.498 E.04275
G1 X208.757 Y35.348 E.0294
G1 X209.045 Y36.126 E.02601
G1 X209.293 Y36.945 E.02683
G1 X209.435 Y37.496 E.01784
G1 X209.634 Y38.68 E.03764
G1 X209.71 Y39.731 E.03304
G1 X209.693 Y40.858 E.03534
G1 X209.573 Y41.979 E.03535
G1 X209.383 Y42.926 E.03028
G1 X208.845 Y44.647 E.05654
G1 X208.47 Y45.483 E.02873
G1 X207.802 Y46.696 E.04342
G1 X207.155 Y47.619 E.03534
G1 X206.426 Y48.479 E.03535
G1 X205.822 Y49.074 E.02658
G1 X205.198 Y49.619 E.02598
G1 X204.748 Y49.981 E.01811
G1 X204.207 Y50.344 E.02043
M204 S1000
G1 X204.207 Y50.344 F10800
G1 X203.953 Y50.053
M204 S800
G1 F1200
G1 X203.411 Y50.408 E.02031
G1 X202.645 Y50.819 E.02726
G1 X201.642 Y51.253 E.03427
G1 X200.603 Y51.592 E.03427
G1 X198.844 Y51.94 E.05622
G1 X197.908 Y52.015 E.02944
G1 X196.817 Y52.009 E.03421
G1 X195.729 Y51.904 E.03427
G1 X194.668 Y51.702 E.03386
G1 X193.423 Y51.332 E.04072
G1 X192.129 Y50.783 E.04407
G1 X191.024 Y50.162 E.03974
G1 X190.239 Y49.616 E.02998
G1 X189.588 Y49.078 E.02648
G1 X188.99 Y48.516 E.02573
G1 X188.625 Y48.146 E.0163
G1 X187.629 Y46.894 E.05016
G1 X187.089 Y46.036 E.03179
G1 X186.538 Y44.959 E.03793
G1 X186.099 Y43.827 E.03807
G1 X185.909 Y43.153 E.02196
G1 X185.662 Y41.997 E.03706
G1 X185.541 Y40.94 E.03336
G1 X185.517 Y39.54 E.0439
G1 X185.686 Y38.049 E.04705
G1 X185.954 Y36.864 E.03809
G1 X186.271 Y35.906 E.03164
G1 X186.703 Y34.902 E.03427
G1 X187.339 Y33.761 E.04096
G1 X187.832 Y33.034 E.02754
G1 X188.592 Y32.104 E.03766
G1 X189.428 Y31.273 E.03696
G1 X190.524 Y30.393 E.04407
G1 X191.475 Y29.781 E.03546
G1 X192.446 Y29.28 E.03426
G1 X193.239 Y28.957 E.02685
G1 X194.388 Y28.588 E.03784
G1 X196.079 Y28.269 E.05396
G1 X197.191 Y28.194 E.03495
G1 X198.298 Y28.223 E.03472
G1 X199.373 Y28.352 E.03395
G1 X200.15 Y28.516 E.0249
G1 X200.852 Y28.703 E.02278
G1 X201.496 Y28.909 E.0212
G1 X202.505 Y29.329 E.03427
G1 X203.008 Y29.578 E.0176
G1 X203.471 Y29.84 E.01668
G1 X204.79 Y30.744 E.05014
G1 X205.646 Y31.484 E.03548
G1 X206.527 Y32.422 E.04035
G1 X207.369 Y33.548 E.04408
G1 X208.02 Y34.658 E.04035
G1 X208.415 Y35.507 E.02936
G1 X208.69 Y36.253 E.02493
G1 X208.928 Y37.039 E.02575
G1 X209.07 Y37.59 E.01784
G1 X209.26 Y38.727 E.03614
G1 X209.334 Y39.757 E.03238
G1 X209.316 Y40.849 E.03424
G1 X209.198 Y41.936 E.03428
G1 X209.014 Y42.849 E.0292
G1 X208.487 Y44.528 E.05518
G1 X208.129 Y45.324 E.02737
G1 X207.476 Y46.506 E.04234
G1 X206.847 Y47.4 E.03427
G1 X206.14 Y48.233 E.03426
G1 X205.56 Y48.803 E.0255
G1 X204.962 Y49.325 E.02489
G1 X204.511 Y49.687 E.01813
G1 X204.003 Y50.02 E.01905
M204 S1000
G1 X204.003 Y50.02 F10800
G1 X203.757 Y49.741
M204 S800
G1 F1200
G1 X203.646 Y49.816 E.0042
G1 X202.467 Y50.487 E.04253
G1 X201.495 Y50.905 E.03317
G1 X200.489 Y51.233 E.03318
G1 X198.813 Y51.564 E.05356
G1 X197.878 Y51.639 E.02941
G1 X196.821 Y51.632 E.03314
G1 X195.768 Y51.529 E.03317
G1 X194.741 Y51.332 E.03279
G1 X193.57 Y50.984 E.0383
G1 X192.276 Y50.435 E.04407
G1 X191.646 Y50.088 E.02255
G1 X190.988 Y49.678 E.02431
G1 X190.454 Y49.307 E.02039
G1 X189.83 Y48.789 E.02543
G1 X189.258 Y48.251 E.02462
G1 X188.893 Y47.881 E.0163
G1 X187.925 Y46.662 E.04881
G1 X187.411 Y45.839 E.03042
G1 X186.827 Y44.682 E.04064
G1 X186.491 Y43.807 E.02939
G1 X186.272 Y43.051 E.02468
G1 X186.032 Y41.928 E.03601
G1 X185.916 Y40.905 E.03228
G1 X185.894 Y39.562 E.04211
G1 X186.061 Y38.092 E.04639
G1 X186.316 Y36.968 E.03614
G1 X186.629 Y36.025 E.03115
G1 X187.048 Y35.053 E.03319
G1 X187.651 Y33.972 E.03881
G1 X188.144 Y33.246 E.02752
G1 X188.867 Y32.361 E.03583
G1 X189.664 Y31.567 E.03527
G1 X190.76 Y30.687 E.04407
G1 X191.676 Y30.1 E.03411
G1 X192.617 Y29.616 E.03318
G1 X193.378 Y29.307 E.02575
G1 X194.494 Y28.95 E.03674
