; generated by PrusaSlicer 2.8.0+win64 on 2026-02-22 at 08:19:01 UTC


;
;
; 

; external perimeters extrusion width = 0.60mm
; perimeters extrusion width = 0.50mm
; infill extrusion width = 0.50mm
; solid infill extrusion width = 0.50mm
; top infill extrusion width = 0.45mm
; support material extrusion width = 0.38mm
; first layer extrusion width = 0.42mm

M73 P0 R32
M73 Q0 S32
M201 X1000 Y1000 Z200 E5000 ; sets maximum accelerations, mm/sec^2
M203 X200 Y200 Z12 E120 ; sets maximum feedrates, mm / sec
M204 S1250 T1250 ; sets acceleration (S) and retract acceleration (R), mm/sec^2
M205 X8.00 Y8.00 Z0.40 E4.50 ; sets the jerk limits, mm/sec
M205 S0 T0 ; sets the minimum extruding and travel feed rate, mm/sec

; printing object e80_connector_inner1.stl id:0 copy 0
; stop printing object e80_connector_inner1.stl id:0 copy 0

;TYPE:Custom
M862.3 P "MK3S" ; printer model check
M862.1 P0.4 ; nozzle diameter check
M115 U3.13.3 ; tell printer latest fw version
G90 ; use absolute coordinates
M83 ; extruder relative mode
M104 S230 ; set extruder temp
M140 S85 ; set bed temp
M190 S85 ; wait for bed temp
M109 S230 ; wait for extruder temp
G28 W ; home all without mesh bed level
G80 X197.944 Y12.7948 W39.7396 H26.006 ; mesh bed levelling

G1 Z0.2 F720
G1 Y-3 F1000 ; go outside print area
G92 E0
G1 X60 E9 F1000 ; intro line
G1 X100 E12.5 F1000 ; intro line

G92 E0
M221 S95

; Don't change E values below. Excessive value can damage the printer.

M907 E538 ; set extruder motor current
G21 ; set units to millimeters
G90 ; use absolute coordinates
M83 ; use relative distances for extrusion

M900 K0.08 ; Filament gcode LA 1.5
M900 K45 ; Filament gcode LA 1.0




M107
;LAYER_CHANGE
;Z:0.2
;HEIGHT:0.2
G1 E-1 F2100
G1 Z.4 F720
; printing object e80_connector_inner1.stl id:0 copy 0
G1 X222.754 Y29.006 F10800
G1 Z.2 F720
G1 E1 F2100
M204 S800
;TYPE:Support material
;WIDTH:0.42
G1 F1200
G1 X223.065 Y29.64 E.02214
G1 X223.065 Y32.703 E.09604
G1 X223.423 Y33.06 E.01585
G1 X223.609 Y33.06 E.00583
G1 X223.574 Y33.449 E.01225
G1 X223.262 Y34.56 E.03618
G1 X222.754 Y35.595 E.03615
G1 X222.077 Y36.506 E.03559
G1 X221.209 Y37.314 E.03718
G1 X220.248 Y37.926 E.03572
G1 X219.179 Y38.359 E.03616
G1 X218.049 Y38.59 E.03616
G1 X216.896 Y38.612 E.03616
G1 X215.758 Y38.425 E.03616
G1 X214.673 Y38.034 E.03616
G1 X213.677 Y37.452 E.03617
G1 X212.803 Y36.7 E.03615
G1 X212.08 Y35.802 E.03615
G1 X211.564 Y34.845 E.03409
G1 X211.36 Y34.301 E.01822
G1 X211.084 Y33.06 E.03986
G1 X211.728 Y33.06 E.02019
G1 X212.085 Y32.703 E.01583
G1 X212.085 Y28.793 E.1226
G1 X212.272 Y28.56 E.00937
G1 X222.423 Y28.56 E.31828
G1 X222.72 Y28.96 E.01562
M204 S1000
G1 X222.72 Y28.96 F10800
G1 X223.022 Y34.663
M204 S800
G1 F1200
G1 X223.022 Y33.14 E.04775
G1 X222.726 Y32.844 E.01313
G1 X222.726 Y29.719 E.09798
G1 X222.603 Y29.469 E.00874
G1 X222.603 Y35.132 E.17756
G1 X222.184 Y35.793 E.02454
G1 X222.184 Y28.9 E.21613
G1 X221.765 Y28.9 E.01314
G1 X221.765 Y36.335 E.23312
G1 X221.346 Y36.731 E.01808
G1 X221.346 Y28.9 E.24554
G1 X220.927 Y28.9 E.01314
G1 X220.927 Y37.092 E.25685
G1 X220.508 Y37.359 E.01558
M73 P0 R31
G1 X220.508 Y28.9 E.26523
G1 X220.089 Y28.9 E.01314
G1 X220.089 Y37.625 E.27357
G1 X219.67 Y37.794 E.01417
G1 X219.67 Y28.9 E.27887
G1 X219.251 Y28.9 E.01314
G1 X219.251 Y37.963 E.28416
G1 X218.832 Y38.083 E.01367
G1 X218.832 Y28.9 E.28793
G1 X218.413 Y28.9 E.01314
G1 X218.413 Y38.169 E.29062
G1 X217.994 Y38.251 E.01339
G1 X217.994 Y28.9 E.29319
G1 X217.575 Y28.9 E.01314
G1 X217.575 Y38.26 E.29348
G1 X217.156 Y38.268 E.01314
G1 X217.156 Y28.9 E.29373
G1 X216.737 Y28.9 E.01314
G1 X216.737 Y38.242 E.29291
G1 X216.318 Y38.173 E.01331
G1 X216.318 Y28.9 E.29075
G1 X215.899 Y28.9 E.01314
G1 X215.899 Y38.104 E.28858
G1 X215.48 Y37.964 E.01385
G1 X215.48 Y28.9 E.2842
G1 X215.061 Y28.9 E.01314
G1 X215.061 Y37.813 E.27946
G1 X214.817 Y37.725 E.00813
G1 X214.642 Y37.623 E.00635
G1 X214.642 Y28.9 E.2735
G1 X214.223 Y28.9 E.01314
M73 Q1 S32
G1 X214.223 Y37.378 E.26582
G1 X213.804 Y37.114 E.01553
M73 P1 R31
G1 X213.804 Y28.9 E.25754
G1 X213.386 Y28.9 E.01311
G1 X213.386 Y36.754 E.24626
G1 X212.967 Y36.362 E.01799
G1 X212.967 Y28.9 E.23397
G1 X212.548 Y28.9 E.01314
G1 X212.548 Y35.841 E.21763
G1 X212.129 Y35.176 E.02464
G1 X212.129 Y33.14 E.06384
G1 X211.869 Y33.4 E.01153
G1 X211.71 Y33.4 E.00499
G1 X211.71 Y34.75 E.04233
M204 S1000
;WIPE_START
G1 F8640
G1 X211.71 Y33.4 E-.31172
G1 X211.869 Y33.4 E-.03671
G1 X212.129 Y33.14 E-.0849
G1 X212.129 Y35.176 E-.47012
G1 X212.352 Y35.53 E-.09655
;WIPE_END
G1 Z.4 F720
G1 X218.015 Y13.067 F10800
G1 Z.2 F720
G1 E1 F2100
M204 S800
G1 F1200
G1 X218.559 Y13.146 E.01724
G1 X219.635 Y13.518 E.0357
G1 X220.62 Y14.087 E.03567
G1 X221.103 Y14.506 E.02005
G1 X222.394 Y14.26 E.04121
G1 X223.551 Y14.309 E.03631
G1 X224.685 Y14.596 E.03668
G1 X225.728 Y15.108 E.03643
G1 X226.645 Y15.823 E.03646
G1 X227.394 Y16.71 E.0364
G1 X227.833 Y17.521 E.02891
G1 X228.68 Y17.601 E.02668
G1 X229.781 Y17.933 E.03606
G1 X230.792 Y18.472 E.03592
G1 X231.678 Y19.198 E.03592
G1 X232.404 Y20.083 E.03589
G1 X232.943 Y21.093 E.0359
G1 X233.274 Y22.189 E.0359
G1 X233.386 Y23.354 E.0367
G1 X234.325 Y24.073 E.03708
G1 X235.074 Y24.94 E.03592
G1 X235.632 Y25.941 E.03593
G1 X235.976 Y27.035 E.03596
G1 X236.098 Y28.238 E.03791
G1 X236.57 Y28.873 E.02481
G1 X237.076 Y29.904 E.03601
G1 X237.39 Y31.026 E.03653
G1 X237.495 Y32.168 E.03596
G1 X237.39 Y33.317 E.03618
G1 X237.078 Y34.427 E.03615
G1 X236.57 Y35.463 E.03618
G1 X235.882 Y36.389 E.03617
G1 X235.037 Y37.174 E.03616
G1 X234.064 Y37.794 E.03617
G1 X232.995 Y38.226 E.03615
G1 X231.865 Y38.457 E.03616
G1 X230.712 Y38.48 E.03616
G1 X229.618 Y38.3 E.03476
G1 X228.46 Y37.885 E.03857
G1 X227.493 Y37.32 E.03512
G1 X226.619 Y36.568 E.03615
G1 X225.896 Y35.669 E.03617
G1 X225.38 Y34.712 E.03409
G1 X224.914 Y33.06 E.05382
G1 X227.083 Y33.06 E.06801
G1 X227.443 Y32.689 E.01621
G1 X227.343 Y31.207 E.04657
G1 X227.096 Y29.986 E.03906
G1 X226.691 Y28.793 E.0395
G1 X226.145 Y27.673 E.03907
G1 X225.469 Y26.641 E.03868
G1 X224.66 Y25.693 E.03908
G1 X223.739 Y24.854 E.03906
G1 X222.718 Y24.138 E.0391
G1 X221.98 Y23.729 E.02646
G1 X220.832 Y23.244 E.03908
G1 X219.632 Y22.907 E.03908
G1 X218.399 Y22.725 E.03908
G1 X217.153 Y22.699 E.03908
G1 X215.914 Y22.831 E.03907
G1 X214.713 Y23.115 E.0387
G1 X213.546 Y23.551 E.03906
G1 X212.791 Y23.929 E.02647
G1 X211.742 Y24.601 E.03906
G1 X210.786 Y25.4 E.03907
G1 X209.946 Y26.304 E.03869
G1 X209.212 Y27.327 E.03948
G1 X208.454 Y28.805 E.05208
G1 X207.955 Y30.389 E.05207
G1 X207.729 Y32.035 E.05209
G1 X207.708 Y32.689 E.02052
G1 X208.067 Y33.06 E.01619
G1 X209.645 Y33.06 E.04948
G1 X209.131 Y34.058 E.0352
G1 X208.427 Y34.953 E.0357
G1 X207.567 Y35.699 E.0357
G1 X206.581 Y36.268 E.03569
G1 X205.505 Y36.64 E.0357
G1 X204.378 Y36.802 E.0357
G1 X203.241 Y36.748 E.03569
G1 X202.135 Y36.48 E.03568
G1 X201.099 Y36.007 E.03571
G1 X200.172 Y35.346 E.0357
G1 X199.387 Y34.522 E.03568
G1 X198.771 Y33.565 E.03568
G1 X198.348 Y32.508 E.0357
G1 X198.133 Y31.39 E.0357
G1 X198.133 Y30.252 E.03568
G1 X198.348 Y29.134 E.0357
G1 X198.771 Y28.077 E.0357
G1 X199.434 Y27.07 E.0378
G1 X199.434 Y25.938 E.03549
M73 Q1 S31
G1 X199.65 Y24.82 E.0357
G1 X200.073 Y23.763 E.0357
G1 X200.688 Y22.805 E.03569
G1 X201.744 Y21.789 E.04595
G1 X202.35 Y20.557 E.04305
G1 X203.073 Y19.676 E.03573
G1 X203.954 Y18.953 E.03573
G1 X205.094 Y18.375 E.04008
G1 X205.58 Y17.678 E.02664
G1 X206.411 Y16.89 E.03591
G1 X207.383 Y16.287 E.03586
G1 X208.458 Y15.893 E.0359
G1 X208.92 Y15.824 E.01465
G1 X209.68 Y15.027 E.03453
G1 X210.607 Y14.367 E.03568
G1 X211.643 Y13.894 E.03571
G1 X212.749 Y13.626 E.03568
G1 X213.886 Y13.571 E.03569
G1 X214.435 Y13.65 E.01739
G1 X215.189 Y13.306 E.02599
G1 X216.295 Y13.038 E.03568
G1 X217.432 Y12.984 E.03569
G1 X217.959 Y13.059 E.01669
M204 S1000
G1 X217.959 Y13.059 F10800
G1 X236.848 Y34.51
M204 S800
G1 F1200
G1 X236.848 Y30.345 E.13059
G1 X236.429 Y29.358 E.03362
G1 X236.429 Y34.978 E.17621
G1 X236.01 Y35.647 E.02475
G1 X236.01 Y28.689 E.21816
G1 X235.77 Y28.366 E.01262
G1 X235.591 Y26.942 E.045
G1 X235.591 Y36.195 E.29012
G1 X235.172 Y36.585 E.01795
G1 X235.172 Y25.813 E.33775
G1 X234.753 Y25.088 E.02626
G1 X234.753 Y36.953 E.37202
G1 X234.334 Y37.22 E.01558
G1 X234.334 Y24.603 E.3956
G1 X233.915 Y24.187 E.01851
G1 X233.915 Y37.486 E.41698
G1 X233.496 Y37.657 E.01419
G1 X233.496 Y23.866 E.43241
G1 X233.077 Y23.544 E.01657
G1 X233.077 Y37.827 E.44783
G1 X232.658 Y37.949 E.01368
G1 X232.658 Y21.324 E.52127
G1 X232.239 Y20.495 E.02912
G1 X232.239 Y38.034 E.54992
G1 X231.82 Y38.119 E.01341
G1 X231.821 Y19.907 E.57102
G1 X231.402 Y19.41 E.02038
G1 X231.402 Y38.127 E.58686
G1 X230.983 Y38.135 E.01314
M73 Q2 S31
G1 X230.983 Y19.067 E.59786
G1 X230.564 Y18.735 E.01676
M73 P2 R31
G1 X230.564 Y38.111 E.60752
G1 X230.145 Y38.042 E.01331
G1 X230.145 Y18.511 E.61238
G1 X229.726 Y18.288 E.01488
G1 X229.726 Y37.973 E.61721
G1 X229.307 Y37.842 E.01376
G1 X229.307 Y18.145 E.61759
G1 X228.888 Y18.018 E.01373
G1 X228.888 Y37.686 E.61668
G1 X228.469 Y37.497 E.01441
G1 X228.469 Y17.923 E.61373
G1 X228.05 Y17.883 E.0132
G1 X228.05 Y37.252 E.6073
G1 X227.631 Y36.991 E.01548
G1 X227.631 Y17.842 E.6004
G1 X227.212 Y17.086 E.0271
G1 X227.212 Y29.215 E.3803
G1 X226.793 Y28.187 E.03481
G1 X226.793 Y16.524 E.36569
G1 X226.374 Y16.042 E.02002
G1 X226.374 Y27.395 E.35597
G1 X225.955 Y26.737 E.02446
G1 X225.955 Y15.715 E.34559
G1 X225.536 Y15.392 E.01659
G1 X225.536 Y26.176 E.33812
G1 X225.117 Y25.686 E.02021
G1 X225.117 Y15.186 E.32922
G1 X224.698 Y14.981 E.01463
G1 X224.698 Y25.253 E.32207
G1 X224.279 Y24.863 E.01795
G1 X224.279 Y14.843 E.31417
G1 X223.86 Y14.736 E.01356
G1 X223.86 Y24.519 E.30674
G1 X223.441 Y24.209 E.01634
G1 X223.441 Y14.644 E.2999
G1 X223.022 Y14.626 E.01315
G1 X223.022 Y23.929 E.29169
G1 X222.603 Y23.678 E.01531
G1 X222.603 Y14.608 E.28438
G1 X222.184 Y14.638 E.01317
G1 X222.184 Y23.452 E.27636
G1 X221.765 Y23.251 E.01457
G1 X221.765 Y14.708 E.26786
G1 X221.346 Y14.777 E.01331
G1 X221.346 Y23.074 E.26015
G1 X220.927 Y22.918 E.01402
G1 X220.927 Y14.802 E.25447
G1 X220.508 Y14.439 E.01738
G1 X220.508 Y22.782 E.26159
G1 X220.089 Y22.666 E.01363
G1 X220.089 Y14.172 E.26632
G1 X219.67 Y13.93 E.01517
G1 X219.67 Y22.569 E.27087
G1 X219.251 Y22.49 E.01337
G1 X219.251 Y13.744 E.27422
G1 X218.832 Y13.599 E.0139
M73 P3 R31
M73 Q3 S31
G1 X218.832 Y22.429 E.27686
G1 X218.413 Y22.386 E.01321
G1 X218.413 Y13.468 E.27962
G1 X217.994 Y13.407 E.01328
G1 X217.994 Y22.36 E.28072
G1 X217.575 Y22.351 E.01314
G1 X217.575 Y13.347 E.28231
G1 X217.156 Y13.337 E.01314
G1 X217.156 Y22.36 E.28291
G1 X216.737 Y22.386 E.01316
G1 X216.737 Y13.357 E.2831
G1 X216.318 Y13.381 E.01316
G1 X216.318 Y22.429 E.28369
G1 X215.899 Y22.49 E.01328
G1 X215.899 Y13.483 E.28241
G1 X215.48 Y13.585 E.01352
G1 X215.48 Y22.569 E.28169
G1 X215.061 Y22.666 E.01348
G1 X215.061 Y13.737 E.27996
G1 X214.642 Y13.929 E.01445
G1 X214.642 Y22.782 E.27758
G1 X214.223 Y22.918 E.01381
G1 X214.223 Y13.963 E.28078
G1 X213.804 Y13.915 E.01322
G1 X213.804 Y23.074 E.28717
G1 X213.386 Y23.251 E.01423
G1 X213.386 Y13.935 E.2921
G1 X212.967 Y13.955 E.01315
G1 X212.967 Y23.452 E.29777
G1 X212.548 Y23.678 E.01493
G1 X212.548 Y14.024 E.30269
G1 X212.129 Y14.125 E.01351
G1 X212.129 Y23.929 E.3074
G1 X211.71 Y24.209 E.0158
G1 X211.71 Y14.237 E.31267
G1 X211.291 Y14.428 E.01444
G1 X211.291 Y24.519 E.3164
G1 X210.872 Y24.863 E.017
G1 X210.872 Y14.619 E.32119
G1 X210.453 Y14.894 E.01571
G1 X210.453 Y25.253 E.3248
G1 X210.034 Y25.686 E.01889
G1 X210.034 Y15.192 E.32903
G1 X209.615 Y15.588 E.01808
G1 X209.615 Y26.176 E.33198
G1 X209.196 Y26.737 E.02195
G1 X209.196 Y16.027 E.3358
G1 X209.085 Y16.143 E.00503
G1 X208.777 Y16.189 E.00976
G1 X208.777 Y27.395 E.35136
G1 X208.358 Y28.187 E.02809
G1 X208.358 Y16.291 E.37299
G1 X207.939 Y16.445 E.014
M73 P3 R30
G1 X207.939 Y29.777 E.41802
M204 S1000
;WIPE_START
G1 F8640
G1 X207.939 Y25.446 E-1
;WIPE_END
G1 Z.4 F720
G1 X227.212 Y36.854 F10800
G1 Z.2 F720
G1 E1 F2100
M204 S800
G1 F1200
G1 X227.212 Y33.4 E.1083
G1 X226.793 Y33.4 E.01314
G1 X226.793 Y36.242 E.08911
G1 X226.374 Y35.721 E.02096
G1 X226.374 Y33.4 E.07277
G1 X225.955 Y33.4 E.01314
G1 X225.955 Y35.063 E.05214
G1 X225.536 Y34.162 E.03116
G1 X225.536 Y33.23 E.02922
M204 S1000
;WIPE_START
G1 F8640
G1 X225.536 Y34.162 E-.2152
G1 X225.955 Y35.063 E-.22944
G1 X225.955 Y33.4 E-.38399
G1 X226.374 Y33.4 E-.09675
G1 X226.374 Y33.723 E-.07462
;WIPE_END
G1 Z.4 F720
G1 X208.777 Y34.234 F10800
G1 Z.2 F720
G1 E1 F2100
M204 S800
G1 F1200
G1 X208.777 Y33.4 E.02615
G1 X208.358 Y33.4 E.01314
G1 X208.358 Y34.492 E.03424
G1 X207.939 Y34.927 E.01894
G1 X207.939 Y33.171 E.05506
M204 S1000
G1 X207.939 Y33.171 F10800
G1 X207.52 Y35.515
M204 S800
G1 F1200
G1 X207.52 Y16.602 E.593
G1 X207.101 Y16.862 E.01546
G1 X207.101 Y35.576 E.58676
G1 X206.682 Y35.818 E.01517
G1 X206.682 Y17.122 E.5862
G1 X206.263 Y17.498 E.01765
M73 P4 R30
M73 Q4 S31
G1 X206.263 Y36.019 E.58071
G1 X205.844 Y36.164 E.0139
G1 X205.844 Y17.895 E.57281
G1 X205.425 Y18.495 E.02295
G1 X205.425 Y36.309 E.55855
G1 X205.006 Y36.369 E.01327
G1 X205.006 Y18.776 E.55162
G1 X204.587 Y19 E.0149
G1 X204.587 Y36.429 E.54647
G1 X204.168 Y36.452 E.01316
G1 X204.168 Y19.223 E.5402
G1 X203.749 Y19.56 E.01686
G1 X203.749 Y36.432 E.52901
G1 X203.33 Y36.412 E.01315
G1 X203.33 Y19.904 E.5176
G1 X202.911 Y20.408 E.02055
G1 X202.911 Y36.319 E.49888
G1 X202.492 Y36.217 E.01352
G1 X202.492 Y21.011 E.47677
G1 X202.073 Y21.874 E.03008
G1 X202.073 Y36.078 E.44536
G1 X201.654 Y35.887 E.01444
G1 X201.654 Y22.284 E.42651
G1 X201.235 Y22.724 E.01905
M73 Q4 S30
G1 X201.235 Y35.687 E.40645
G1 X200.816 Y35.388 E.01614
G1 X200.816 Y23.234 E.38108
G1 X200.397 Y23.886 E.0243
G1 X200.397 Y35.09 E.35129
G1 X199.978 Y34.651 E.01903
G1 X199.978 Y24.912 E.30536
G1 X199.774 Y25.97 E.03378
G1 X199.774 Y27.206 E.03875
G1 X199.559 Y27.479 E.0109
G1 X199.559 Y34.164 E.2096
G1 X199.14 Y33.512 E.0243
G1 X199.14 Y28.131 E.16872
G1 X198.721 Y29.115 E.03353
G1 X198.721 Y32.984 E.12131
M204 S1000
;WIPE_START
G1 F8640
G1 X198.721 Y29.115 E-.89336
G1 X198.902 Y28.69 E-.10664
;WIPE_END
G1 Z.4 F720
G1 X210.249 Y29.302 F10800
G1 Z.2 F720
G1 E1 F2100
M204 S800
;TYPE:Perimeter
;WIDTH:0.544953
G1 F1200
G1 X210.249 Y30.196 E.03732
;WIDTH:0.55549
G1 X210.243 Y31.218 E.04356
G1 X209.687 Y31.218 E.0237
G1 X209.752 Y30.777 E.019
;WIDTH:0.544953
G1 X209.923 Y30.144 E.02737
G1 X210.227 Y29.358 E.03518
M204 S1000
;WIPE_START
G1 F8640
G1 X210.249 Y29.302 E-.01389
G1 X210.249 Y30.196 E-.20643
G1 X210.243 Y31.218 E-.23599
G1 X209.687 Y31.218 E-.12838
G1 X209.752 Y30.777 E-.10293
G1 X209.923 Y30.144 E-.1514
G1 X210.174 Y29.494 E-.16098
;WIPE_END
G1 Z.4 F720
G1 X210.773 Y27.485 F10800
G1 Z.2 F720
G1 E1 F2100
M204 S800
;WIDTH:0.411699
G1 F1200
G1 X210.692 Y27.793 E.00977
;WIDTH:0.419999
G1 X210.688 Y31.663 E.12134
G1 X209.165 Y31.663 E.04775
G1 X209.321 Y30.684 E.03108
G1 X209.504 Y30.007 E.02199
G1 X209.905 Y28.979 E.0346
G1 X210.224 Y28.36 E.02183
G1 X210.498 Y27.923 E.01617
;WIDTH:0.39365
G1 X210.741 Y27.536 E.01333
M204 S1000
G1 X210.741 Y27.536 F10800
G1 X210.773 Y27.485
M204 S800
;WIDTH:0.3673
G1 F1200
G1 X210.826 Y27.408 E.00252
M204 S1000
;WIPE_START
G1 F8640
G1 X210.773 Y27.485 E-.02158
;WIPE_END
G1 E-.97842 F2100
G1 Z.4 F720
G1 X224.908 Y29.335 F10800
G1 Z.2 F720
G1 E1 F2100
M204 S800
;WIDTH:0.557299
G1 F1200
G1 X225.224 Y30.154 E.03755
G1 X225.473 Y31.218 E.04674
G1 X224.908 Y31.218 E.02417
G1 X224.908 Y29.395 E.07797
M204 S1000
;WIPE_START
G1 F8640
G1 X224.908 Y29.335 E-.01385
G1 X225.224 Y30.154 E-.2027
G1 X225.473 Y31.218 E-.25232
G1 X224.908 Y31.218 E-.13046
G1 X224.908 Y29.483 E-.40067
;WIPE_END
G1 Z.4 F720
G1 X224.368 Y27.477 F10800
G1 Z.2 F720
G1 E1 F2100
M204 S800
;WIDTH:0.385266
G1 F1200
G1 X224.465 Y27.624 E.00501
;WIDTH:0.412957
G1 X224.562 Y27.77 E.00539
;WIDTH:0.419999
G1 X224.933 Y28.369 E.02209
G1 X225.256 Y28.999 E.0222
G1 X225.635 Y29.977 E.03289
G1 X225.857 Y30.835 E.02779
G1 X225.958 Y31.401 E.01803
G1 X225.98 Y31.663 E.00824
G1 X224.462 Y31.663 E.0476
G1 X224.459 Y27.8 E.12112
;WIDTH:0.412957
